X:320
T:Reel 320
M:4/4
K:Ador
L:1/8
GE|DB,A,C B,A,G,A,|B,CB,A, B,EAE|DB,A,C B,G,G,B,|CB,A,C  (3EFG FG|DB,A,C B,A,G,A,|B,CDB, E2GA| (3BAG AF GEDB,|CA,B,G, A,2|CB,|A,AA^G A2A=G|EAAB A2EF|GDB,G, GFGA|BcBA GFED|EAAG ABAG|EDEF G2FG|AFGE DB,A,B,|CA,B,G, A,2|
